X: 14770
T: Gan Ainm
R: waltz
M: 3/4
K: Gmajor
D2|G>B d2 B2|G>B d2 B2|edefge|d2 z2 D2|
(3DFA c2 A2|(3DFA c2 A2|d^cdfaf|g2 z2||
d2|dc BA G2|dc BA G2|gfgfgf|gfgfed|
cBAGFE|cBAGFE|G2 AB c/d/e/f/|g2 z2||
D2|A/G/F/G/ BGdG|A/G/F/G/ BGdG|a/g/f/g/ agbg|d2 z2 D2|
E/D/^C/D/ FDAF|E/D/^C/D/ FDAF|A/G/F/G/ BGdB|g2 z2||
d2|d/c/B/c/ AFDf|a/g/f/g/ dBGd|d/c/B/c/ AFDf|a/g/f/g/ gb d2|
d/c/B/c/ AFDf|a/g/f/g/ dBGd|d/c/B/c/ AFDf|g2||

